X: 5004
T: Breton
R: jig
M: 6/8
K: Edorian
|:EFG F2D|EGA B3|B2A BAE|F2G FED|
EFG F2D|EGA B3|BAG A2B|GFD E3:|
|:B2B BAG|A2A AGA|B2E EFG|F2F FED|
[1 B2B BAG|A2A AGA|B2E EFG|FED E3]:|
[2 EFG F2D|EGA B3|BAG A2B|GFD E3||

